assets/images/icons/heart.svg

<svg width="49" height="48" viewBox="0 0 49 48" fill="none" xmlns="http://www.w3.org/2000/svg">
<circle cx="24.6814" cy="23.8938" r="23.8938" fill="#418CFE"/>
<path d="M30.148 15.1787C28.2194 15.1787 26.5158 16.1494 25.5 17.628C24.4844 16.1494 22.7808 15.1787 20.8522 15.1787C17.7408 15.1787 15.2144 17.7051 15.2144 20.8166C15.2144 27.6888 25.5 33.8666 25.5 33.8666C25.5 33.8666 35.7858 27.6888 35.7858 20.8166C35.7858 17.7051 33.2594 15.1787 30.148 15.1787Z" fill="url(#paint0_radial_7_632)"/>
<path opacity="0.5" d="M32.4813 15.6802C35.5671 20.598 32.7257 27.0523 29.3121 28.8845C25.5449 30.9095 22.9671 29.958 17.6313 26.9302C20.6721 30.9609 25.4999 33.8602 25.4999 33.8602C25.4999 33.8602 35.7857 27.6823 35.7857 20.8102C35.7857 18.5345 34.4292 16.5673 32.4813 15.6802Z" fill="url(#paint1_radial_7_632)"/>
<path opacity="0.5" d="M30.148 15.1787C28.2194 15.1787 26.5158 16.1494 25.5 17.628C24.4844 16.1494 22.7808 15.1787 20.8522 15.1787C17.7408 15.1787 15.2144 17.7051 15.2144 20.8166C15.2144 27.6888 25.5 33.8666 25.5 33.8666C25.5 33.8666 35.7858 27.6888 35.7858 20.8166C35.7858 17.7051 33.2594 15.1787 30.148 15.1787Z" fill="url(#paint2_radial_7_632)"/>
<path opacity="0.5" d="M30.148 15.1787C28.2194 15.1787 26.5158 16.1494 25.5 17.628C24.4844 16.1494 22.7808 15.1787 20.8522 15.1787C17.7408 15.1787 15.2144 17.7051 15.2144 20.8166C15.2144 27.6888 25.5 33.8666 25.5 33.8666C25.5 33.8666 35.7858 27.6888 35.7858 20.8166C35.7858 17.7051 33.2594 15.1787 30.148 15.1787Z" fill="url(#paint3_radial_7_632)"/>
<path opacity="0.24" d="M24.0922 17.4674C24.6579 18.7982 23.4043 20.6046 21.2893 21.4982C19.1743 22.3917 17.0079 22.0446 16.4422 20.7203C15.8765 19.396 17.13 17.5832 19.245 16.6896C21.36 15.796 23.5264 16.1367 24.0922 17.4674Z" fill="url(#paint4_radial_7_632)"/>
<path opacity="0.24" d="M30.9834 16.3876C31.787 17.2747 31.292 19.0297 29.8842 20.3026C28.4763 21.5754 26.6827 21.8904 25.8792 21.0033C25.0756 20.1161 25.5706 18.3611 26.9784 17.0883C28.3863 15.8154 30.1799 15.5004 30.9834 16.3876Z" fill="url(#paint5_radial_7_632)"/>
<path opacity="0.32" d="M30.2507 16.6766C33.0793 17.6409 35.7793 21.8194 31.2151 27.0266C28.4829 30.1444 25.5001 31.7194 21.7072 31.1022C23.7579 32.8122 25.5065 33.8666 25.5065 33.8666C25.5065 33.8666 35.7923 27.6888 35.7923 20.8166C35.7857 17.7051 33.2593 15.1787 30.1479 15.1787C28.2193 15.1787 26.5157 16.1494 25.5001 17.628C25.5001 17.628 28.1807 15.9694 30.2507 16.6766Z" fill="url(#paint6_linear_7_632)"/>
<defs>
<radialGradient id="paint0_radial_7_632" cx="0" cy="0" r="1" gradientUnits="userSpaceOnUse" gradientTransform="translate(22.5579 20.3912) rotate(-29.408) scale(16.0947 12.7672)">
<stop offset="0.2479" stop-color="#FF0000"/>
<stop offset="0.8639" stop-color="#C20000"/>
</radialGradient>
<radialGradient id="paint1_radial_7_632" cx="0" cy="0" r="1" gradientUnits="userSpaceOnUse" gradientTransform="translate(22.9558 19.4039) rotate(-29.408) scale(13.857 10.9921)">
<stop offset="0.2479" stop-color="#FF0000"/>
<stop offset="1" stop-color="#C20000"/>
</radialGradient>
<radialGradient id="paint2_radial_7_632" cx="0" cy="0" r="1" gradientUnits="userSpaceOnUse" gradientTransform="translate(22.5579 20.3912) rotate(-29.408) scale(16.0947 12.7672)">
<stop stop-color="white" stop-opacity="0.25"/>
<stop offset="1" stop-color="white" stop-opacity="0"/>
</radialGradient>
<radialGradient id="paint3_radial_7_632" cx="0" cy="0" r="1" gradientUnits="userSpaceOnUse" gradientTransform="translate(28.3437 25.855) rotate(-26.296) scale(11.7485 5.80543)">
<stop stop-color="#BD2719" stop-opacity="0.25"/>
<stop offset="1" stop-color="#BD2719" stop-opacity="0"/>
</radialGradient>
<radialGradient id="paint4_radial_7_632" cx="0" cy="0" r="1" gradientUnits="userSpaceOnUse" gradientTransform="translate(20.2659 19.0938) rotate(-21.6908) scale(4.17659 2.59443)">
<stop stop-color="white"/>
<stop offset="1" stop-color="white" stop-opacity="0"/>
</radialGradient>
<radialGradient id="paint5_radial_7_632" cx="0" cy="0" r="1" gradientUnits="userSpaceOnUse" gradientTransform="translate(28.4254 18.7021) rotate(-40.7634) scale(3.45798 2.14819)">
<stop stop-color="white"/>
<stop offset="1" stop-color="white" stop-opacity="0"/>
</radialGradient>
<linearGradient id="paint6_linear_7_632" x1="27.6226" y1="41.2061" x2="29.6156" y2="14.3346" gradientUnits="userSpaceOnUse">
<stop stop-color="#860805"/>
<stop offset="1" stop-color="#BD2719" stop-opacity="0"/>
</linearGradient>
</defs>
</svg>

<svg width="49" height="48" fill="none" xmlns="http://www.w3.org/2000/svg"><circle cx="24.681" cy="23.894" r="23.894" fill="#418CFE"/><path d="M30.148 15.179c-1.929 0-3.632.97-4.648 2.449a5.63 5.63 0 0 0-4.648-2.45 5.64 5.64 0 0 0-5.638 5.639c0 6.872 10.286 13.05 10.286 13.05s10.286-6.178 10.286-13.05a5.64 5.64 0 0 0-5.638-5.638z" fill="url(#a)"/><path opacity=".5" d="M32.481 15.68c3.086 4.918.245 11.372-3.169 13.204-3.767 2.026-6.345 1.074-11.68-1.954 3.04 4.03 7.868 6.93 7.868 6.93s10.286-6.178 10.286-13.05a5.642 5.642 0 0 0-3.305-5.13z" fill="url(#b)"/><path opacity=".5" d="M30.148 15.179c-1.929 0-3.632.97-4.648 2.449a5.63 5.63 0 0 0-4.648-2.45 5.64 5.64 0 0 0-5.638 5.639c0 6.872 10.286 13.05 10.286 13.05s10.286-6.178 10.286-13.05a5.64 5.64 0 0 0-5.638-5.638z" fill="url(#c)"/><path opacity=".5" d="M30.148 15.179c-1.929 0-3.632.97-4.648 2.449a5.63 5.63 0 0 0-4.648-2.45 5.64 5.64 0 0 0-5.638 5.639c0 6.872 10.286 13.05 10.286 13.05s10.286-6.178 10.286-13.05a5.64 5.64 0 0 0-5.638-5.638z" fill="url(#d)"/><path opacity=".24" d="M24.092 17.467c.566 1.331-.688 3.138-2.803 4.031-2.115.894-4.281.547-4.847-.778-.566-1.324.688-3.137 2.803-4.03 2.115-.894 4.281-.553 4.847.777z" fill="url(#e)"/><path opacity=".24" d="M30.983 16.388c.804.887.309 2.642-1.099 3.915-1.408 1.272-3.201 1.587-4.005.7-.803-.887-.308-2.642 1.1-3.915 1.407-1.273 3.2-1.588 4.004-.7z" fill="url(#f)"/><path opacity=".32" d="M30.25 16.677c2.83.964 5.53 5.142.965 10.35-2.732 3.117-5.715 4.692-9.508 4.075 2.05 1.71 3.8 2.765 3.8 2.765s10.285-6.178 10.285-13.05a5.65 5.65 0 0 0-5.644-5.638 5.63 5.63 0 0 0-4.648 2.449s2.68-1.659 4.75-.951z" fill="url(#g)"/><defs><radialGradient id="a" cx="0" cy="0" r="1" gradientUnits="userSpaceOnUse" gradientTransform="matrix(14.02082 -7.9029 6.26902 11.12209 22.558 20.391)"><stop offset=".248" stop-color="red"/><stop offset=".864" stop-color="#C20000"/></radialGradient><radialGradient id="b" cx="0" cy="0" r="1" gradientUnits="userSpaceOnUse" gradientTransform="rotate(-29.408 48.449 -34.037) scale(13.857 10.9921)"><stop offset=".248" stop-color="red"/><stop offset="1" stop-color="#C20000"/></radialGradient><radialGradient id="c" cx="0" cy="0" r="1" gradientUnits="userSpaceOnUse" gradientTransform="matrix(14.02082 -7.9029 6.26902 11.12209 22.558 20.391)"><stop stop-color="#fff" stop-opacity=".25"/><stop offset="1" stop-color="#fff" stop-opacity="0"/></radialGradient><radialGradient id="d" cx="0" cy="0" r="1" gradientUnits="userSpaceOnUse" gradientTransform="rotate(-26.296 69.514 -47.742) scale(11.7485 5.80543)"><stop stop-color="#BD2719" stop-opacity=".25"/><stop offset="1" stop-color="#BD2719" stop-opacity="0"/></radialGradient><radialGradient id="e" cx="0" cy="0" r="1" gradientUnits="userSpaceOnUse" gradientTransform="matrix(3.88085 -1.54366 .9589 2.41072 20.266 19.094)"><stop stop-color="#fff"/><stop offset="1" stop-color="#fff" stop-opacity="0"/></radialGradient><radialGradient id="f" cx="0" cy="0" r="1" gradientUnits="userSpaceOnUse" gradientTransform="rotate(-40.763 39.382 -28.903) scale(3.45798 2.14819)"><stop stop-color="#fff"/><stop offset="1" stop-color="#fff" stop-opacity="0"/></radialGradient><linearGradient id="g" x1="27.623" y1="41.206" x2="29.616" y2="14.335" gradientUnits="userSpaceOnUse"><stop stop-color="#860805"/><stop offset="1" stop-color="#BD2719" stop-opacity="0"/></linearGradient></defs></svg>
